assets/awschimesdk/original.svg

<svg height="64" viewBox="0 0 64 64" width="64" xmlns="http://www.w3.org/2000/svg"><g fill="none" fill-rule="evenodd"><path d="m0 0h64v64h-64z" fill="#dd344c"/><path d="m24 28.569-2.38-1.618h-3.62v-1.951h3v-2.426l-4.898-2.858-2.102 1.752v4.032l3.6 2.7-1.2 1.599-4-3a1 1 0 0 1 -.4-.799v-4.85l-2.306-1.475-4.694 2.803v2.777l2.162 1.435 1.838-1.225v-2.465h2v3c0 .334-.167.646-.445.832l-2.555 1.703v1.465c0 .334-.167.646-.445.832l-3 2-1.11-1.664 2.555-1.703v-1.146l-1.83-1.215-2.17 1.326v4.759l2.417 1.107a1 1 0 0 1 .583.909v3.566l4.993 3.052 2.007-1.21v-5.469l-3.375 2.636-1.25-1.561 4.546-3.637v-1.395l-1.808-1.084 1.03-1.715 2.293 1.375c.3.181.564.507.564.858v6.379h3v2h-3v1.597l1.997 1.237 5.003-3.067v-3.305l-3.556-2.437 1.112-1.664 3.903 2.609 1.541-.638zm2-.529v5.96a1 1 0 0 1 -.617.923l-2.292.951v3.458a1 1 0 0 1 -.485.856l-6.09 3.668a1 1 0 0 1 -1.028.003l-2.553-1.521-2.403 1.508a1 1 0 0 1 -1.053.007l-6-3.668a1 1 0 0 1 -.479-.853v-3.485l-2.417-1.108a1 1 0 0 1 -.583-.909v-5.96a1 1 0 0 1 .479-.853l2.521-1.542v-3.565c0-.352.186-.678.487-.859l5.712-3.41a1 1 0 0 1 1.052.016l2.941 1.881 2.167-1.806c.326-.27.784-.308 1.145-.096l6 3.5a1 1 0 0 1 .496.864v3.47l2.562 1.743a1 1 0 0 1 .438.827m-10-13.04h2v-10h-2zm5 3h2v-10h-2zm5 4h2v-17h-2zm10-8h2v-6h-2zm-25 1h2v-6h-2zm20 2h2v-8h-2zm1 19a1 1 0 0 1 -1-1v-5.952l-3-.048.001-2h4c.552 0 .999.497.999 1.048v4.249l4.241-4.948a1 1 0 0 1 .759-.349h2c.9 0 2-.923 2-2v-21.172c0-1.008-.761-1.828-1.695-1.828h-31.54c-.973 0-1.765.82-1.765 1.828v12.172h-2v-12.172c0-2.111 1.688-3.828 3.765-3.828h31.54c2.038 0 3.695 1.717 3.695 3.828v21.172c0 2.093-1.906 4-4 4h-1.54l-5.701 6.651a1 1 0 0 1 -.759.349" fill="#fff" transform="translate(10 10)"/></g></svg>

<svg xmlns="http://www.w3.org/2000/svg" width="64" height="64" viewBox="0 0 64 64"><title>Icon-Architecture/48/Arch_Amazon-Chime-SDK_48</title><g id="Icon-Architecture/48/Arch_Amazon-Chime-SDK_48" fill="none" fill-rule="evenodd" stroke="none" stroke-width="1"><g id="Icon-Architecture-BG/48/Business-Applications" fill="#dd344c"><path id="Rectangle" d="M0 0h64v64H0z"/></g><g id="Icon-Service/48/Amazon-Chime-SDK_48" fill="#fff" transform="translate(10 10)"><path id="Fill-1" d="m24 28.569-2.38-1.618H18V25h3v-2.426l-4.898-2.858L14 21.468V25.5l3.6 2.7-1.2 1.599-4-3A1 1 0 0 1 12 26v-4.85l-2.306-1.475L5 22.478v2.777l2.162 1.435L9 25.465V23h2v3c0 .334-.167.646-.445.832L8 28.535V30c0 .334-.167.646-.445.832l-3 2-1.11-1.664L6 29.465v-1.146l-1.83-1.215L2 28.43v4.759l2.417 1.107a1 1 0 0 1 .583.909v3.566l4.993 3.052L12 40.613v-5.469L8.625 37.78l-1.25-1.561 4.546-3.637v-1.395l-1.808-1.084 1.03-1.715 2.293 1.375c.3.181.564.507.564.858V37h3v2h-3v1.597l1.997 1.237L21 38.767v-3.305l-3.556-2.437 1.112-1.664 3.903 2.609L24 33.332zm2-.529V34a1 1 0 0 1-.617.923l-2.292.951v3.458a1 1 0 0 1-.485.856l-6.09 3.668a1 1 0 0 1-1.028.003l-2.553-1.521-2.403 1.508a1 1 0 0 1-1.053.007l-6-3.668A1 1 0 0 1 3 39.332v-3.485L.583 34.739A1 1 0 0 1 0 33.83v-5.96a1 1 0 0 1 .479-.853L3 25.475V21.91c0-.352.186-.678.487-.859l5.712-3.41a1 1 0 0 1 1.052.016l2.941 1.881 2.167-1.806c.326-.27.784-.308 1.145-.096l6 3.5A1 1 0 0 1 23 22v3.47l2.562 1.743a1 1 0 0 1 .438.827M16 15h2V5h-2zm5 3h2V8h-2zm5 4h2V5h-2zm10-8h2V8h-2zm-25 1h2V9h-2zm20 2h2V9h-2zm1 19a1 1 0 0 1-1-1v-5.952L28 29l.001-2h4c.552 0 .999.497.999 1.048v4.249l4.241-4.948A1 1 0 0 1 38 27h2c.9 0 2-.923 2-2V3.828C42 2.82 41.239 2 40.305 2H8.765C7.792 2 7 2.82 7 3.828V16H5V3.828C5 1.717 6.688 0 8.765 0h31.54C42.343 0 44 1.717 44 3.828V25c0 2.093-1.906 4-4 4h-1.54l-5.701 6.651A1 1 0 0 1 32 36"/></g></g></svg>
